X:1
T:Moses Hoe the Corn
M:C|
K:D
"D"f2 af "A"efec | "D" dedB A2 AB | dcde fede | "A"fa - ab a4 | 
"D"f2 af "A"efec | "D" dedB A2 AB | dcde "A" fdec |1"D"d3 c d4:|2"D"d4 "D7"=c4||
|:"G"B3 d BA G2 |"D"FGAB A2 ag | fga2 a3a | b2a2 fe d2|
"G"B3 d BA G2 |"D"FGAB A2 a2| fgaf "A"ed c2 |1"D"d4 "D7"=c4:|2"D"d4 d4|]
